X:1
T:Title
%%score ( 1 2 ) ( 3 4 )
L:1/8
Q:1/4=113
M:3/4
K:F
V:1 treble nm="Grand Piano, Staff"
V:2 treble 
V:3 bass nm="Choir Pad, Cradle Song, 11.11.11.11"
V:4 bass 
V:1
 z2 F2 z2 | [DG][CA] [A,F]2 F2 | AB c2 c2 | d2 B2- [EB]2 | G[FA] B2 B2 | [Gc]2 [GA]2 [FA]2 | %6
 .F2 z2 z2 | [B,F]2 [CE]4 | C2 [A,F]2 [A,F]2 | [B,G][CA] [A,F]2 [A,F]2 | AB c2 c2 | d2 B2- [EB]2 | %12
 [DG][EA] B2 B2 | [Gc]2 [GA]2 [FA]2 | .F2 z2 z2 | E2 z2 z2 | z6 |] %17
V:2
 C2 C2- [CF]2 | x6 | F2 F4- | F2 F2 z2 | z2 F4 | x6 | C-[CA] [DG]2 D2 | x6 | x6 | x6 | F2 F4- | %11
 F2 F2 z2 | z2 F4 | x6 | C-[CA] [DG]2 D2 | CB, [A,F]4- | [A,F]4 z2 |] %17
V:3
 C,2 [A,,F,]4 | [B,,F,][C,E,] D,2 A,2 | F,G, A,2 A,2 | B,2[K:treble] D2 C2 | %4
 [B,D][CE] D2[K:bass] D,2 | [E,C]2 [F,C]4 | z2 F,4 | [D,F,]2 [C,G,]4 | C,2 [F,,C,]4- | %9
 [F,,C,]2 [F,,C,]4 | F,G, A,2 A,2 | B,2 D2 C2 | B,[A,C] [G,D]4 | [E,C]2 [F,C]4 | z2 F,4 | %15
 [C,E,]2 [F,,C,]4- | [F,,C,]4 z2 |] %17
V:4
 x6 | x6 | z2 F,4- | F,2[K:treble] G,4 | x4[K:bass] x2 | x6 | A,F, B,,2 G,,2 | x6 | x6 | x6 | %10
 z2 F,4- | F,2 G,4 | x6 | x6 | [A,,F,]2 B,,2 G,,2 | x6 | x6 |] %17

